assets/icons/carriage/DOPPELSTOCKSTEUERWAGENZWEITEKLASSE.svg

<svg width="34" height="34" viewBox="0 0 34 34" fill="none" xmlns="http://www.w3.org/2000/svg">
<g clip-path="url(#clip0_129_5)">
<rect width="34" height="34" rx="17" fill="#414141"/>
<path d="M9.60586 27V24.48C11.6659 22.84 13.4659 21.33 15.0059 19.95C16.5659 18.57 17.7859 17.24 18.6659 15.96C19.5459 14.68 19.9859 13.38 19.9859 12.06C19.9859 10.96 19.6759 10.1 19.0559 9.48C18.4359 8.84 17.5959 8.52 16.5359 8.52C15.3159 8.52 14.3759 8.91 13.7159 9.69C13.0559 10.45 12.7259 11.36 12.7259 12.42H9.63586C9.65586 10.94 9.96586 9.7 10.5659 8.7C11.1659 7.7 11.9759 6.94 12.9959 6.42C14.0359 5.9 15.2159 5.64 16.5359 5.64C18.6759 5.64 20.3259 6.22 21.4859 7.38C22.6459 8.52 23.2259 10.05 23.2259 11.97C23.2259 13.19 22.9559 14.37 22.4159 15.51C21.8959 16.63 21.2059 17.7 20.3459 18.72C19.4859 19.74 18.5259 20.71 17.4659 21.63C16.4259 22.55 15.3759 23.43 14.3159 24.27H23.7959V27H9.60586Z" fill="white"/>
</g>
<defs>
<clipPath id="clip0_129_5">
<rect width="34" height="34" fill="white"/>
</clipPath>
</defs>
</svg>

<svg xmlns="http://www.w3.org/2000/svg" width="34" height="34" fill="none"><g clip-path="url(#a)"><rect width="34" height="34" fill="#414141" rx="17"/><path fill="#fff" d="M9.606 27v-2.52c2.06-1.64 3.86-3.15 5.4-4.53 1.56-1.38 2.78-2.71 3.66-3.99.88-1.28 1.32-2.58 1.32-3.9 0-1.1-.31-1.96-.93-2.58-.62-.64-1.46-.96-2.52-.96-1.22 0-2.16.39-2.82 1.17-.66.76-.99 1.67-.99 2.73h-3.09c.02-1.48.33-2.72.93-3.72.6-1 1.41-1.76 2.43-2.28 1.04-.52 2.22-.78 3.54-.78 2.14 0 3.79.58 4.95 1.74 1.16 1.14 1.74 2.67 1.74 4.59 0 1.22-.27 2.4-.81 3.54-.52 1.12-1.21 2.19-2.07 3.21a26.33 26.33 0 0 1-2.88 2.91c-1.04.92-2.09 1.8-3.15 2.64h9.48V27H9.606Z"/></g><defs><clipPath id="a"><path fill="#fff" d="M0 0h34v34H0z"/></clipPath></defs></svg>
